X: 1
T: Paul Wallace
B: Lowe's Collection
R: reel
Z: 2010 John Chambers <jc:trillian.mit.edu>
M: C|
L: 1/8
K: F
C | "F"F2CF AFEF | "Bb"D2GF "C7"EGGA | "F"F2CF     AFEF | "Bb"Dd"C7"cB "F"F2F :|
c | "F"f2cf afcA | "C7"G2gf     egce | "F"f2cf     afcA | "C7"BGcA     "F"F2F |]
e | "F"f2cf afcA | "C7"G2gf     egce | "F"fcAc "Gm"dBGB | "C7"AFGE     "F"F2F |]
